X:0355
T:Gallway Girls.
M:2/4
L:1/8
Q:1/2=104
I: :: ||
Z:Jack Campin * www.campin.me.uk * 2009
K:E Minor
efge|dBBd|cAAc|dBBd |efge|dBBd|cABG|E2E2::
BcBA|Bcd2|ABAG|FGA2 |BcBA|Bcde|dBdF|E2E2 |
BcBA|BcdB|ABAG|FGA>d|BcBA|Bcde|dBdF|E2E2||

